assets/icons/quiz-graph.svg

<svg width="32" height="32" viewBox="0 0 32 32" fill="none" xmlns="http://www.w3.org/2000/svg">
<rect width="32" height="32" rx="4" fill="#EAE4FF"/>
<path d="M24.3477 10.6328C25.1588 10.6328 25.8164 11.2904 25.8164 12.1016C25.8164 12.8284 25.288 13.4292 24.5947 13.5469C24.5431 14.2976 24.4393 15.2509 24.2217 16.2061C23.9847 17.2464 23.6109 18.3108 23.0166 19.1201C22.6779 19.5813 22.2639 19.962 21.7637 20.207C21.5885 20.8222 21.0249 21.2734 20.3535 21.2734C19.6528 21.2734 19.0675 20.7825 18.9209 20.126C18.4612 19.885 18.0503 19.5436 17.6758 19.1426C16.9352 18.3495 16.3125 17.2988 15.7139 16.2783C15.108 15.2455 14.5265 14.2446 13.8574 13.498C13.6548 13.272 13.4466 13.0726 13.2305 12.9043C12.9682 13.3049 12.5165 13.5703 12.002 13.5703C11.3319 13.5703 10.7682 13.1212 10.5918 12.5078C10.1663 12.6991 9.803 13.013 9.49023 13.4131C8.95194 14.1017 8.57453 15.0335 8.3125 15.9873C8.07913 16.8368 7.94315 17.689 7.8623 18.373C8.51781 18.5204 9.00781 19.1047 9.00781 19.8047C9.00781 20.6159 8.35023 21.2734 7.53906 21.2734C6.72789 21.2734 6.07031 20.6159 6.07031 19.8047C6.07031 19.0537 6.63404 18.4354 7.36133 18.3477C7.44348 17.6416 7.5843 16.7491 7.83008 15.8545C8.0999 14.8724 8.49999 13.8688 9.09668 13.1055C9.48458 12.6093 9.96043 12.2105 10.5381 11.9893C10.5955 11.2306 11.2286 10.6328 12.002 10.6328C12.8131 10.6328 13.4707 11.2904 13.4707 12.1016C13.4707 12.2145 13.4558 12.324 13.4316 12.4297C13.7168 12.6374 13.9819 12.8867 14.2305 13.1641C14.9402 13.956 15.548 15.0069 16.1455 16.0254C16.7501 17.056 17.3451 18.0565 18.041 18.8018C18.3162 19.0964 18.6035 19.3469 18.9092 19.542C19.0331 18.8563 19.6321 18.3359 20.3535 18.3359C21.098 18.3359 21.7105 18.8902 21.8066 19.6084C22.1127 19.4091 22.3803 19.1428 22.6143 18.8242C23.1501 18.0945 23.5039 17.1064 23.7344 16.0947C23.9413 15.1862 24.0424 14.2745 24.0938 13.5459C23.4038 13.4254 22.8789 12.826 22.8789 12.1016C22.8789 11.2904 23.5365 10.6328 24.3477 10.6328Z" fill="#7C5BFF"/>
</svg>

<svg xmlns="http://www.w3.org/2000/svg" width="32" height="32" fill="none" viewBox="0 0 32 32"><rect width="32" height="32" fill="#EAE4FF" rx="4"/><path fill="#7C5BFF" d="M24.348 10.633a1.469 1.469 0 0 1 .247 2.914 17.63 17.63 0 0 1-.373 2.66c-.237 1.04-.611 2.104-1.205 2.913-.34.461-.753.842-1.253 1.087a1.467 1.467 0 0 1-2.843-.081c-.46-.241-.87-.582-1.245-.983-.74-.794-1.363-1.844-1.962-2.865-.606-1.032-1.188-2.033-1.857-2.78a4.862 4.862 0 0 0-.627-.594 1.466 1.466 0 0 1-2.638-.396c-.426.191-.789.505-1.102.905-.538.689-.915 1.62-1.178 2.574a16.45 16.45 0 0 0-.45 2.386 1.468 1.468 0 1 1-.5-.025c.081-.706.222-1.599.468-2.493.27-.983.67-1.986 1.267-2.75.388-.496.863-.895 1.441-1.116a1.468 1.468 0 1 1 2.894.44c.285.208.55.458.798.735.71.792 1.318 1.843 1.915 2.861.605 1.031 1.2 2.032 1.896 2.777.275.294.563.545.868.74a1.467 1.467 0 0 1 2.897.066c.307-.199.574-.465.808-.784.536-.73.89-1.718 1.12-2.73.207-.908.308-1.82.36-2.548a1.467 1.467 0 0 1 .254-2.913Z"/></svg>
